resources/svg/minimise-o.svg

<svg xmlns="http://www.w3.org/2000/svg" viewBox="0 0 15 15" fill="none"><path d="M9.5 9.5H13m-3.5 0V13m0-3.5l4 4m-.5-8H9.5m0 0V2m0 3.5l4-4M2 5.5h3.5m0 0V2m0 3.5l-4-4m4 11.5V9.5m0 0H2m3.5 0l-4 4" stroke="currentColor"/></svg>

<svg xmlns="http://www.w3.org/2000/svg" viewBox="0 0 15 15" fill="none"><path d="M9.49999 9.5L13 9.5M9.49999 9.5L9.49999 13M9.49999 9.5L13.5 13.5M13 5.5L9.5 5.5M9.5 5.5V2M9.5 5.5L13.5 1.5M2 5.5L5.5 5.5M5.5 5.5L5.5 2M5.5 5.5L1.5 1.5M5.5 13L5.5 9.5M5.5 9.5L2 9.5M5.5 9.5L1.5 13.5" stroke="black"/></svg>
